; generated by PrusaSlicer 2.7.4 on 2025-03-18 at 18:03:11 UTC

; 

; external perimeters extrusion width = 0.11mm
; perimeters extrusion width = 0.11mm
; infill extrusion width = 0.11mm
; solid infill extrusion width = 0.11mm
; top infill extrusion width = 0.10mm
; first layer extrusion width = 0.10mm

M104 S200 ; set temperature
;TYPE:Custom
G28 ; home all axes
G1 Z5 F5000 ; lift nozzle
M109 S200 ; set temperature and wait for it to be reached
G21 ; set units to millimeters
G90 ; use absolute coordinates
M82 ; use absolute distances for extrusion
G92 E0
; Filament gcode
M107
;LAYER_CHANGE
;Z:0.03
;HEIGHT:0.03
G1 E-2 F2400
G1 Z.03 F48000
G92 E0
G1 X9.263 Y7.263
G1 E2 F2400
G92 E0
;TYPE:Perimeter
;WIDTH:0.0999991
G1 F5936
G1 X.737 Y7.263 E.00995
G1 X.737 Y2.737 E.01523
G1 X9.263 Y2.737 E.02518
G1 X9.263 Y5 E.02782
G1 X9.263 Y7.248 E.03044
G1 X9.263 Y7.248 F48000
G1 X9.356 Y7.356
G1 F5936
G1 X.644 Y7.356 E.04061
G1 X.644 Y2.644 E.04611
G1 X9.356 Y2.644 E.05628
G1 X9.356 Y5 E.05903
G1 X9.356 Y7.341 E.06176
G1 X9.356 Y7.341 F48000
G1 X9.45 Y7.45
;TYPE:External perimeter
G1 F5936
G1 X.55 Y7.45 E.07215
G1 X.55 Y2.55 E.07787
G1 X9.45 Y2.55 E.08826
G1 X9.45 Y5 E.09112
G1 X9.45 Y7.435 E.09396
G1 X9.351 Y7.45 F48000
G1 X9.192 Y7.235
;TYPE:Solid infill
;WIDTH:0.100648
G1 F5936
G1 X9.192 Y2.807 E.09916
G1 X9.098 Y2.807 E.09927
G1 X9.098 Y7.193 E.10442
G1 X9.004 Y7.193 E.10453
G1 X9.004 Y2.807 E.10968
G1 X8.91 Y2.807 E.10979
G1 X8.91 Y7.193 E.11494
G1 X8.815 Y7.193 E.11505
G1 X8.815 Y2.807 E.1202
G1 X8.721 Y2.807 E.12031
G1 X8.721 Y7.193 E.12546
G1 X8.627 Y7.193 E.12557
G1 X8.627 Y2.807 E.13072
G1 X8.533 Y2.807 E.13083
G1 X8.533 Y7.193 E.13598
G1 X8.439 Y7.193 E.13609
G1 X8.439 Y2.807 E.14124
G1 X8.344 Y2.807 E.14135
G1 X8.344 Y7.193 E.1465
G1 X8.25 Y7.193 E.14661
G1 X8.25 Y2.807 E.15176
G1 X8.156 Y2.807 E.15187
G1 X8.156 Y7.193 E.15702
G1 X8.062 Y7.193 E.15713
G1 X8.062 Y2.807 E.16228
G1 X7.968 Y2.807 E.16239
G1 X7.968 Y7.193 E.16754
G1 X7.873 Y7.193 E.16765
G1 X7.873 Y2.807 E.1728
G1 X7.779 Y2.807 E.17291
G1 X7.779 Y7.193 E.17806
G1 X7.685 Y7.193 E.17817
G1 X7.685 Y2.807 E.18332
G1 X7.591 Y2.807 E.18343
G1 X7.591 Y7.193 E.18858
G1 X7.497 Y7.193 E.18869
G1 X7.497 Y2.807 E.19384
G1 X7.402 Y2.807 E.19395
G1 X7.402 Y7.193 E.1991
G1 X7.308 Y7.193 E.19921
G1 X7.308 Y2.807 E.20436
G1 X7.214 Y2.807 E.20447
G1 X7.214 Y7.193 E.20962
G1 X7.12 Y7.193 E.20973
G1 X7.12 Y2.807 E.21488
G1 X7.026 Y2.807 E.21499
G1 X7.026 Y7.193 E.22014
G1 X6.931 Y7.193 E.22025
G1 X6.931 Y2.807 E.2254
G1 X6.837 Y2.807 E.22551
G1 X6.837 Y7.193 E.23066
G1 X6.743 Y7.193 E.23077
G1 X6.743 Y2.807 E.23592
G1 X6.649 Y2.807 E.23603
G1 X6.649 Y7.193 E.24118
G1 X6.554 Y7.193 E.24129
G1 X6.554 Y2.807 E.24644
G1 X6.46 Y2.807 E.24655
G1 X6.46 Y7.193 E.2517
G1 X6.366 Y7.193 E.25181
G1 X6.366 Y2.807 E.25696
G1 X6.272 Y2.807 E.25707
G1 X6.272 Y7.193 E.26222
G1 X6.178 Y7.193 E.26233
G1 X6.178 Y2.807 E.26748
G1 X6.083 Y2.807 E.26759
G1 X6.083 Y7.193 E.27274
G1 X5.989 Y7.193 E.27285
G1 X5.989 Y2.807 E.278
G1 X5.895 Y2.807 E.27811
G1 X5.895 Y7.193 E.28326
G1 X5.801 Y7.193 E.28337
G1 X5.801 Y2.807 E.28852
G1 X5.707 Y2.807 E.28863
G1 X5.707 Y7.193 E.29378
G1 X5.612 Y7.193 E.29389
G1 X5.612 Y2.807 E.29904
G1 X5.518 Y2.807 E.29915
G1 X5.518 Y7.193 E.3043
G1 X5.424 Y7.193 E.30441
G1 X5.424 Y2.807 E.30956
G1 X5.33 Y2.807 E.30967
G1 X5.33 Y7.193 E.31482
G1 X5.236 Y7.193 E.31493
G1 X5.236 Y2.807 E.32008
G1 X5.141 Y2.807 E.32019
G1 X5.141 Y7.193 E.32534
G1 X5.047 Y7.193 E.32545
G1 X5.047 Y2.807 E.3306
G1 X4.953 Y2.807 E.33071
G1 X4.953 Y7.193 E.33586
G1 X4.859 Y7.193 E.33597
G1 X4.859 Y2.807 E.34112
G1 X4.764 Y2.807 E.34123
G1 X4.764 Y7.193 E.34638
G1 X4.67 Y7.193 E.34649
G1 X4.67 Y2.807 E.35164
G1 X4.576 Y2.807 E.35175
G1 X4.576 Y7.193 E.3569
G1 X4.482 Y7.193 E.35701
G1 X4.482 Y2.807 E.36216
G1 X4.388 Y2.807 E.36227
G1 X4.388 Y7.193 E.36742
G1 X4.293 Y7.193 E.36753
G1 X4.293 Y2.807 E.37268
G1 X4.199 Y2.807 E.37279
G1 X4.199 Y7.193 E.37794
G1 X4.105 Y7.193 E.37805
G1 X4.105 Y2.807 E.3832
G1 X4.011 Y2.807 E.38331
G1 X4.011 Y7.193 E.38846
G1 X3.917 Y7.193 E.38857
G1 X3.917 Y2.807 E.39372
G1 X3.822 Y2.807 E.39383
G1 X3.822 Y7.193 E.39898
G1 X3.728 Y7.193 E.39909
G1 X3.728 Y2.807 E.40424
G1 X3.634 Y2.807 E.40435
G1 X3.634 Y7.193 E.4095
G1 X3.54 Y7.193 E.40961
G1 X3.54 Y2.807 E.41476
G1 X3.446 Y2.807 E.41487
G1 X3.446 Y7.193 E.42002
G1 X3.351 Y7.193 E.42013
G1 X3.351 Y2.807 E.42528
G1 X3.257 Y2.807 E.42539
G1 X3.257 Y7.193 E.43054
G1 X3.163 Y7.193 E.43065
G1 X3.163 Y2.807 E.4358
G1 X3.069 Y2.807 E.43591
G1 X3.069 Y7.193 E.44106
G1 X2.974 Y7.193 E.44117
G1 X2.974 Y2.807 E.44632
G1 X2.88 Y2.807 E.44643
G1 X2.88 Y7.193 E.45158
G1 X2.786 Y7.193 E.45169
G1 X2.786 Y2.807 E.45684
G1 X2.692 Y2.807 E.45695
G1 X2.692 Y7.193 E.4621
G1 X2.598 Y7.193 E.46221
G1 X2.598 Y2.807 E.46736
G1 X2.503 Y2.807 E.46747
G1 X2.503 Y7.193 E.47262
G1 X2.409 Y7.193 E.47273
G1 X2.409 Y2.807 E.47788
G1 X2.315 Y2.807 E.47799
G1 X2.315 Y7.193 E.48314
G1 X2.221 Y7.193 E.48325
G1 X2.221 Y2.807 E.4884
G1 X2.127 Y2.807 E.48851
G1 X2.127 Y7.193 E.49366
G1 X2.032 Y7.193 E.49377
G1 X2.032 Y2.807 E.49892
G1 X1.938 Y2.807 E.49903
G1 X1.938 Y7.193 E.50418
G1 X1.844 Y7.193 E.50429
G1 X1.844 Y2.807 E.50944
G1 X1.75 Y2.807 E.50955
G1 X1.75 Y7.193 E.5147
G1 X1.656 Y7.193 E.51481
G1 X1.656 Y2.807 E.51996
G1 X1.561 Y2.807 E.52007
G1 X1.561 Y7.193 E.52522
G1 X1.467 Y7.193 E.52533
G1 X1.467 Y2.807 E.53048
G1 X1.373 Y2.807 E.53059
G1 X1.373 Y7.193 E.53574
G1 X1.279 Y7.193 E.53585
G1 X1.279 Y2.807 E.541
G1 X1.184 Y2.807 E.54111
G1 X1.184 Y7.193 E.54626
G1 X1.09 Y7.193 E.54637
G1 X1.09 Y2.807 E.55152
G1 X.996 Y2.807 E.55163
G1 X.996 Y7.193 E.55678
G1 X.902 Y7.193 E.55689
G1 X.902 Y2.807 E.56204
G1 X.808 Y2.807 E.56215
G1 X.808 Y7.235 E.56735
;LAYER_CHANGE
;Z:0.06
;HEIGHT:0.03
G1 Z.06 F48000
G1 E-1.43265 F2400
G92 E0
G1 X.808 Y7.235 Z.06 F48000
G1 X9.238 Y7.238
G1 E2 F2400
G92 E0
;TYPE:Perimeter
;WIDTH:0.109999
G1 F5779
G1 X.762 Y7.238 E.01095
G1 X.762 Y2.762 E.01673
G1 X9.238 Y2.762 E.02768
G1 X9.238 Y5 E.03057
G1 X9.238 Y7.223 E.03344
G1 X9.238 Y7.223 F48000
G1 X9.341 Y7.341
G1 F5779
G1 X.659 Y7.341 E.04465
G1 X.659 Y2.659 E.0507
G1 X9.341 Y2.659 E.06191
G1 X9.341 Y5 E.06493
G1 X9.341 Y7.326 E.06793
G1 X9.341 Y7.326 F48000
G1 X9.445 Y7.445
;TYPE:External perimeter
G1 F5779
G1 X.555 Y7.445 E.07941
G1 X.555 Y2.555 E.08573
G1 X9.445 Y2.555 E.09721
G1 X9.445 Y5 E.10037
G1 X9.445 Y7.43 E.10351
G1 X9.346 Y7.445 F48000
G1 E-1.89649 F2400
G92 E0
G1 X9.186 Y2.814 F48000
G1 E2 F2400
;TYPE:Solid infill
;WIDTH:0.0914381
G1 F5779
G1 X.814 Y2.814 E2.00888
;WIDTH:0.109999
G1 X.84 Y2.892 E2.00899
G1 X9.16 Y2.892 E2.01974
G1 X9.16 Y2.995 E2.01987
G1 X.84 Y2.995 E2.03062
G1 X.84 Y3.099 E2.03075
G1 X9.16 Y3.099 E2.0415
G1 X9.16 Y3.202 E2.04163
G1 X.84 Y3.202 E2.05238
G1 X.84 Y3.306 E2.05251
G1 X9.16 Y3.306 E2.06326
G1 X9.16 Y3.409 E2.06339
G1 X.84 Y3.409 E2.07414
G1 X.84 Y3.513 E2.07427
G1 X9.16 Y3.513 E2.08502
G1 X9.16 Y3.617 E2.08515
G1 X.84 Y3.617 E2.0959
G1 X.84 Y3.72 E2.09603
G1 X9.16 Y3.72 E2.10678
G1 X9.16 Y3.824 E2.10691
G1 X.84 Y3.824 E2.11766
G1 X.84 Y3.927 E2.11779
G1 X9.16 Y3.927 E2.12854
G1 X9.16 Y4.031 E2.12867
G1 X.84 Y4.031 E2.13942
G1 X.84 Y4.134 E2.13955
G1 X9.16 Y4.134 E2.1503
G1 X9.16 Y4.238 E2.15043
G1 X.84 Y4.238 E2.16118
G1 X.84 Y4.341 E2.16131
G1 X9.16 Y4.341 E2.17206
G1 X9.16 Y4.445 E2.17219
G1 X.84 Y4.445 E2.18294
G1 X.84 Y4.549 E2.18307
G1 X9.16 Y4.549 E2.19382
G1 X9.16 Y4.652 E2.19395
G1 X.84 Y4.652 E2.2047
G1 X.84 Y4.756 E2.20483
G1 X9.16 Y4.756 E2.21558
G1 X9.16 Y4.859 E2.21571
G1 X.84 Y4.859 E2.22646
G1 X.84 Y4.963 E2.22659
G1 X9.16 Y4.963 E2.23734
G1 X9.16 Y5.066 E2.23747
G1 X.84 Y5.066 E2.24822
G1 X.84 Y5.17 E2.24835
G1 X9.16 Y5.17 E2.2591
G1 X9.16 Y5.273 E2.25923
G1 X.84 Y5.273 E2.26998
G1 X.84 Y5.377 E2.27011
G1 X9.16 Y5.377 E2.28086
G1 X9.16 Y5.481 E2.28099
G1 X.84 Y5.481 E2.29174
G1 X.84 Y5.584 E2.29187
G1 X9.16 Y5.584 E2.30262
G1 X9.16 Y5.688 E2.30275
G1 X.84 Y5.688 E2.3135
G1 X.84 Y5.791 E2.31363
G1 X9.16 Y5.791 E2.32438
G1 X9.16 Y5.895 E2.32451
G1 X.84 Y5.895 E2.33526
G1 X.84 Y5.998 E2.33539
G1 X9.16 Y5.998 E2.34614
G1 X9.16 Y6.102 E2.34627
G1 X.84 Y6.102 E2.35702
G1 X.84 Y6.206 E2.35715
G1 X9.16 Y6.206 E2.3679
G1 X9.16 Y6.309 E2.36803
G1 X.84 Y6.309 E2.37878
G1 X.84 Y6.413 E2.37891
G1 X9.16 Y6.413 E2.38966
G1 X9.16 Y6.516 E2.38979
G1 X.84 Y6.516 E2.40054
G1 X.84 Y6.62 E2.40067
G1 X9.16 Y6.62 E2.41142
G1 X9.16 Y6.723 E2.41155
G1 X.84 Y6.723 E2.4223
G1 X.84 Y6.827 E2.42243
G1 X9.16 Y6.827 E2.43318
G1 X9.16 Y6.93 E2.43331
G1 X.84 Y6.93 E2.44406
G1 X.84 Y7.034 E2.44419
G1 X9.16 Y7.034 E2.45494
G1 E.45494 F2400
G92 E0
G1 X9.16 Y7.034 F48000
G1 X.84 Y7.138
G1 E2 F2400
G1 F5779
G1 X9.16 Y7.138 E2.01075
G1 X9.175 Y7.175 E2.0108
;WIDTH:0.0914381
G1 X.825 Y7.175 E2.01965
;LAYER_CHANGE
;Z:0.09
;HEIGHT:0.03
G1 Z.09 F48000
G1 E.01965 F2400
G92 E0
G1 X.825 Y7.175 Z.09 F48000
G1 X9.238 Y7.238
G1 E2 F2400
G92 E0
;TYPE:Perimeter
;WIDTH:0.109999
G1 F5680
G1 X.762 Y7.238 E.01095
G1 X.762 Y2.762 E.01673
G1 X9.238 Y2.762 E.02768
G1 X9.238 Y5 E.03057
G1 X9.238 Y7.223 E.03344
G1 X9.238 Y7.223 F48000
G1 X9.341 Y7.341
G1 F5680
G1 X.659 Y7.341 E.04465
G1 X.659 Y2.659 E.0507
G1 X9.341 Y2.659 E.06191
G1 X9.341 Y5 E.06493
G1 X9.341 Y7.326 E.06793
G1 X9.341 Y7.326 F48000
G1 X9.445 Y7.445
;TYPE:External perimeter
G1 F5680
G1 X.555 Y7.445 E.07941
G1 X.555 Y2.555 E.08573
G1 X9.445 Y2.555 E.09721
G1 X9.445 Y5 E.10037
G1 X9.445 Y7.43 E.10351
G1 X9.346 Y7.445 F48000
G1 E-1.89649 F2400
G92 E0
G1 X.814 Y2.814 F48000
G1 E2 F2400
;TYPE:Solid infill
;WIDTH:0.0914381
G1 F5680
G1 X.814 Y7.186 E2.00464
;WIDTH:0.109999
G1 X.892 Y7.16 E2.00475
G1 X.892 Y2.84 E2.01033
G1 X.995 Y2.84 E2.01046
G1 X.995 Y7.16 E2.01604
G1 X1.099 Y7.16 E2.01617
G1 X1.099 Y2.84 E2.02175
G1 X1.202 Y2.84 E2.02188
G1 X1.202 Y7.16 E2.02746
G1 X1.306 Y7.16 E2.02759
G1 X1.306 Y2.84 E2.03317
G1 X1.409 Y2.84 E2.0333
G1 X1.409 Y7.16 E2.03888
G1 X1.513 Y7.16 E2.03901
G1 X1.513 Y2.84 E2.04459
G1 X1.617 Y2.84 E2.04472
G1 X1.617 Y7.16 E2.0503
G1 X1.72 Y7.16 E2.05043
G1 X1.72 Y2.84 E2.05601
G1 X1.824 Y2.84 E2.05614
G1 X1.824 Y7.16 E2.06172
G1 X1.927 Y7.16 E2.06185
G1 X1.927 Y2.84 E2.06743
G1 X2.031 Y2.84 E2.06756
G1 X2.031 Y7.16 E2.07314
G1 X2.134 Y7.16 E2.07327
G1 X2.134 Y2.84 E2.07885
G1 X2.238 Y2.84 E2.07898
G1 X2.238 Y7.16 E2.08456
G1 X2.341 Y7.16 E2.08469
G1 X2.341 Y2.84 E2.09027
G1 X2.445 Y2.84 E2.0904
G1 X2.445 Y7.16 E2.09598
G1 X2.549 Y7.16 E2.09611
G1 X2.549 Y2.84 E2.10169
G1 X2.652 Y2.84 E2.10182
G1 X2.652 Y7.16 E2.1074
G1 X2.756 Y7.16 E2.10753
G1 X2.756 Y2.84 E2.11311
G1 X2.859 Y2.84 E2.11324
G1 X2.859 Y7.16 E2.11882
G1 X2.963 Y7.16 E2.11895
G1 X2.963 Y2.84 E2.12453
G1 X3.066 Y2.84 E2.12466
G1 X3.066 Y7.16 E2.13024
G1 X3.17 Y7.16 E2.13037
G1 X3.17 Y2.84 E2.13595
G1 X3.273 Y2.84 E2.13608
G1 X3.273 Y7.16 E2.14166
G1 X3.377 Y7.16 E2.14179
G1 X3.377 Y2.84 E2.14737
G1 X3.481 Y2.84 E2.1475
G1 X3.481 Y7.16 E2.15308
G1 X3.584 Y7.16 E2.15321
G1 X3.584 Y2.84 E2.15879
G1 X3.688 Y2.84 E2.15892
G1 X3.688 Y7.16 E2.1645
G1 X3.791 Y7.16 E2.16463
G1 X3.791 Y2.84 E2.17021
G1 X3.895 Y2.84 E2.17034
G1 X3.895 Y7.16 E2.17592
G1 X3.998 Y7.16 E2.17605
G1 X3.998 Y2.84 E2.18163
G1 X4.102 Y2.84 E2.18176
G1 X4.102 Y7.16 E2.18734
G1 X4.206 Y7.16 E2.18747
G1 X4.206 Y2.84 E2.19305
G1 X4.309 Y2.84 E2.19318
G1 X4.309 Y7.16 E2.19876
G1 X4.413 Y7.16 E2.19889
G1 X4.413 Y2.84 E2.20447
G1 X4.516 Y2.84 E2.2046
G1 X4.516 Y7.16 E2.21018
G1 X4.62 Y7.16 E2.21031
G1 X4.62 Y2.84 E2.21589
G1 X4.723 Y2.84 E2.21602
G1 X4.723 Y7.16 E2.2216
G1 X4.827 Y7.16 E2.22173
G1 X4.827 Y2.84 E2.22731
G1 X4.93 Y2.84 E2.22744
G1 X4.93 Y7.16 E2.23302
G1 X5.034 Y7.16 E2.23315
G1 X5.034 Y2.84 E2.23873
G1 X5.138 Y2.84 E2.23886
G1 X5.138 Y7.16 E2.24444
G1 X5.241 Y7.16 E2.24457
G1 X5.241 Y2.84 E2.25015
G1 X5.345 Y2.84 E2.25028
G1 X5.345 Y7.16 E2.25586
G1 X5.448 Y7.16 E2.25599
G1 X5.448 Y2.84 E2.26157
G1 X5.552 Y2.84 E2.2617
G1 X5.552 Y7.16 E2.26728
G1 X5.655 Y7.16 E2.26741
G1 X5.655 Y2.84 E2.27299
G1 X5.759 Y2.84 E2.27312
G1 X5.759 Y7.16 E2.2787
G1 X5.863 Y7.16 E2.27883
G1 X5.863 Y2.84 E2.28441
G1 X5.966 Y2.84 E2.28454
G1 X5.966 Y7.16 E2.29012
G1 X6.07 Y7.16 E2.29025
G1 X6.07 Y2.84 E2.29583
G1 X6.173 Y2.84 E2.29596
G1 X6.173 Y7.16 E2.30154
G1 X6.277 Y7.16 E2.30167
G1 X6.277 Y2.84 E2.30725
G1 X6.38 Y2.84 E2.30738
G1 X6.38 Y7.16 E2.31296
G1 X6.484 Y7.16 E2.31309
G1 X6.484 Y2.84 E2.31867
G1 X6.587 Y2.84 E2.3188
G1 X6.587 Y7.16 E2.32438
G1 X6.691 Y7.16 E2.32451
G1 X6.691 Y2.84 E2.33009
G1 X6.795 Y2.84 E2.33022
G1 X6.795 Y7.16 E2.3358
G1 X6.898 Y7.16 E2.33593
G1 X6.898 Y2.84 E2.34151
G1 X7.002 Y2.84 E2.34164
G1 X7.002 Y7.16 E2.34722
G1 X7.105 Y7.16 E2.34735
G1 X7.105 Y2.84 E2.35293
G1 X7.209 Y2.84 E2.35306
G1 X7.209 Y7.16 E2.35864
G1 X7.312 Y7.16 E2.35877
G1 X7.312 Y2.84 E2.36435
G1 X7.416 Y2.84 E2.36448
G1 X7.416 Y7.16 E2.37006
G1 X7.519 Y7.16 E2.37019
G1 X7.519 Y2.84 E2.37577
G1 X7.623 Y2.84 E2.3759
G1 X7.623 Y7.16 E2.38148
G1 X7.727 Y7.16 E2.38161
G1 X7.727 Y2.84 E2.38719
G1 X7.83 Y2.84 E2.38732
G1 X7.83 Y7.16 E2.3929
G1 X7.934 Y7.16 E2.39303
G1 X7.934 Y2.84 E2.39861
G1 X8.037 Y2.84 E2.39874
G1 X8.037 Y7.16 E2.40432
G1 X8.141 Y7.16 E2.40445
G1 X8.141 Y2.84 E2.41003
G1 X8.244 Y2.84 E2.41016
G1 X8.244 Y7.16 E2.41574
G1 X8.348 Y7.16 E2.41587
G1 X8.348 Y2.84 E2.42145
G1 X8.452 Y2.84 E2.42158
G1 X8.452 Y7.16 E2.42716
G1 X8.555 Y7.16 E2.42729
G1 X8.555 Y2.84 E2.43287
G1 X8.659 Y2.84 E2.433
G1 X8.659 Y7.16 E2.43858
G1 X8.762 Y7.16 E2.43871
G1 X8.762 Y2.84 E2.44429
G1 X8.866 Y2.84 E2.44442
G1 X8.866 Y7.16 E2.45
G1 X8.969 Y7.16 E2.45013
G1 X8.969 Y2.84 E2.45571
G1 E.45571 F2400
G92 E0
G1 X8.969 Y2.84 F48000
G1 X9.073 Y7.16
G1 E2 F2400
G1 F5680
G1 X9.073 Y2.84 E2.00558
G1 X9.168 Y2.832 E2.0057
;WIDTH:0.0937461
G1 X9.168 Y7.168 E2.01042
M106 S252.45
;LAYER_CHANGE
;Z:0.12
;HEIGHT:0.03
G1 Z.12 F48000
G1 X9.238 Y7.238
G92 E0
;TYPE:Perimeter
;WIDTH:0.109999
G1 F5646
G1 X.762 Y7.238 E.01095
G1 X.762 Y2.762 E.01673
G1 X9.238 Y2.762 E.02768
G1 X9.238 Y5 E.03057
G1 X9.238 Y7.223 E.03344
G1 X9.238 Y7.223 F48000
G1 X9.341 Y7.341
G1 F5646
G1 X.659 Y7.341 E.04465
G1 X.659 Y2.659 E.0507
G1 X9.341 Y2.659 E.06191
G1 X9.341 Y5 E.06493
G1 X9.341 Y7.326 E.06793
G1 X9.341 Y7.326 F48000
G1 X9.445 Y7.445
;TYPE:External perimeter
G1 F5646
G1 X.555 Y7.445 E.07941
G1 X.555 Y2.555 E.08573
G1 X9.445 Y2.555 E.09721
G1 X9.445 Y5 E.10037
G1 X9.445 Y7.43 E.10351
G1 X9.346 Y7.445 F48000
G1 E-1.89649 F2400
G92 E0
G1 X9.186 Y2.814 F48000
G1 E2 F2400
;TYPE:Solid infill
;WIDTH:0.0914381
G1 F5646
G1 X.814 Y2.814 E2.00888
;WIDTH:0.109999
G1 X.84 Y2.892 E2.00899
G1 X9.16 Y2.892 E2.01974
G1 X9.16 Y2.995 E2.01987
G1 X.84 Y2.995 E2.03062
G1 X.84 Y3.099 E2.03075
G1 X9.16 Y3.099 E2.0415
G1 X9.16 Y3.202 E2.04163
G1 X.84 Y3.202 E2.05238
G1 X.84 Y3.306 E2.05251
G1 X9.16 Y3.306 E2.06326
G1 X9.16 Y3.409 E2.06339
G1 X.84 Y3.409 E2.07414
G1 X.84 Y3.513 E2.07427
G1 X9.16 Y3.513 E2.08502
G1 X9.16 Y3.617 E2.08515
G1 X.84 Y3.617 E2.0959
G1 X.84 Y3.72 E2.09603
G1 X9.16 Y3.72 E2.10678
G1 X9.16 Y3.824 E2.10691
G1 X.84 Y3.824 E2.11766
G1 X.84 Y3.927 E2.11779
G1 X9.16 Y3.927 E2.12854
G1 X9.16 Y4.031 E2.12867
G1 X.84 Y4.031 E2.13942
G1 X.84 Y4.134 E2.13955
G1 X9.16 Y4.134 E2.1503
G1 X9.16 Y4.238 E2.15043
G1 X.84 Y4.238 E2.16118
G1 X.84 Y4.341 E2.16131
G1 X9.16 Y4.341 E2.17206
G1 X9.16 Y4.445 E2.17219
G1 X.84 Y4.445 E2.18294
G1 X.84 Y4.549 E2.18307
G1 X9.16 Y4.549 E2.19382
G1 X9.16 Y4.652 E2.19395
G1 X.84 Y4.652 E2.2047
G1 X.84 Y4.756 E2.20483
G1 X9.16 Y4.756 E2.21558
G1 X9.16 Y4.859 E2.21571
G1 X.84 Y4.859 E2.22646
G1 X.84 Y4.963 E2.22659
G1 X9.16 Y4.963 E2.23734
G1 X9.16 Y5.066 E2.23747
G1 X.84 Y5.066 E2.24822
G1 X.84 Y5.17 E2.24835
G1 X9.16 Y5.17 E2.2591
G1 X9.16 Y5.273 E2.25923
G1 X.84 Y5.273 E2.26998
G1 X.84 Y5.377 E2.27011
G1 X9.16 Y5.377 E2.28086
G1 X9.16 Y5.481 E2.28099
G1 X.84 Y5.481 E2.29174
G1 X.84 Y5.584 E2.29187
G1 X9.16 Y5.584 E2.30262
G1 X9.16 Y5.688 E2.30275
G1 X.84 Y5.688 E2.3135
G1 X.84 Y5.791 E2.31363
G1 X9.16 Y5.791 E2.32438
G1 X9.16 Y5.895 E2.32451
G1 X.84 Y5.895 E2.33526
G1 X.84 Y5.998 E2.33539
G1 X9.16 Y5.998 E2.34614
G1 X9.16 Y6.102 E2.34627
G1 X.84 Y6.102 E2.35702
